icons/svg/seamark/light_major.svg

<?xml version="1.0" encoding="UTF-8" standalone="no"?>
<svg
   xmlns:dc="http://purl.org/dc/elements/1.1/"
   xmlns:cc="http://creativecommons.org/ns#"
   xmlns:rdf="http://www.w3.org/1999/02/22-rdf-syntax-ns#"
   xmlns:svg="http://www.w3.org/2000/svg"
   xmlns="http://www.w3.org/2000/svg"
   xmlns:sodipodi="http://sodipodi.sourceforge.net/DTD/sodipodi-0.dtd"
   xmlns:inkscape="http://www.inkscape.org/namespaces/inkscape"
   width="1060"
   height="1060"
   id="svg2"
   version="1.1"
   inkscape:version="0.48.4 r9939"
   sodipodi:docname="light_major.svg">
  <defs
     id="defs13">
    <inkscape:path-effect
       effect="gears"
       id="path-effect3774"
       is_visible="true"
       teeth="6"
       phi="-1.2" />
    <inkscape:path-effect
       effect="bend_path"
       id="path-effect3772"
       is_visible="false"
       bendpath="m 95.790098,316.51174 c 144.429032,-206.42506 223.313032,-11.7428 339.548092,0"
       prop_scale="1.19"
       scale_y_rel="false"
       vertical="false"
       bendpath-nodetypes="cc" />
  </defs>
  <sodipodi:namedview
     pagecolor="#ffffff"
     bordercolor="#666666"
     borderopacity="1"
     objecttolerance="10"
     gridtolerance="10"
     guidetolerance="10"
     inkscape:pageopacity="0"
     inkscape:pageshadow="2"
     inkscape:window-width="1920"
     inkscape:window-height="1004"
     id="namedview11"
     showgrid="false"
     inkscape:zoom="0.57543862"
     inkscape:cx="741.93855"
     inkscape:cy="432.92041"
     inkscape:window-x="1680"
     inkscape:window-y="0"
     inkscape:window-maximized="1"
     inkscape:current-layer="svg2" />
  <metadata
     id="metadata2975">image/svg+xmlen<rdf:RDF>
  <cc:Work
     rdf:about="">
    <dc:format>image/svg+xml</dc:format>
    <dc:type
       rdf:resource="http://purl.org/dc/dcmitype/StillImage" />
    <dc:title />
  </cc:Work>
</rdf:RDF>
</metadata>
  <path
     style="opacity:0.42608696;color:#000000;fill:#acd8f3;fill-opacity:1;fill-rule:nonzero;stroke:#a35151;stroke-width:0;stroke-linecap:round;stroke-linejoin:miter;stroke-miterlimit:4;stroke-opacity:1;stroke-dashoffset:0;marker:none;visibility:visible;display:inline;overflow:visible;enable-background:accumulate"
     d="M 531.22844,-6.852029 C 519.46785,-6.4558297 507.85708,-2.3876912 498.42101,4.6428892 488.98494,11.673469 481.76544,21.635318 478.02155,32.791114 L 379.74601,325.76812 70.615803,322.80875 c -12.186226,-0.11541 -24.378825,3.71858 -34.305754,10.78778 -9.926929,7.06918 -17.537584,17.33744 -21.413778,28.89133 -3.876195,11.55389 -3.99814,24.33454 -0.343129,35.9603 3.654992,11.62574 11.068337,22.03737 20.858563,29.2947 L 283.68999,611.71664 185.29115,904.7553 c -3.87152,11.55195 -3.99055,24.32879 -0.3349,35.95086 3.65564,11.62209 11.06733,22.03018 20.85466,29.28585 9.78733,7.25567 21.90043,11.32192 34.08329,11.44139 12.18285,0.11958 24.37339,-3.70831 34.30117,-10.77061 L 526.04955,791.37468 774.26618,975.47176 c 9.79031,7.24385 21.90168,11.29868 34.08,11.40976 12.1783,0.11108 24.36162,-3.72207 34.28247,-10.78603 9.92085,-7.06406 17.52877,-17.32301 21.4078,-28.86758 3.87904,-11.54454 4.00946,-24.31598 0.36702,-35.93735 L 771.80005,616.5256 1023.6542,437.23748 c 9.936,-7.06429 17.5562,-17.33182 21.4398,-28.88795 3.8838,-11.55611 4.011,-24.34184 0.358,-35.97293 -3.653,-11.63111 -11.0675,-22.04821 -20.8609,-29.30881 -9.7933,-7.26059 -21.9157,-11.32758 -34.10641,-11.44259 L 681.29284,328.66583 588.68942,33.839222 C 584.90653,21.817063 577.09714,11.100358 566.81169,3.8166745 556.52625,-3.46703 543.82462,-7.2752781 531.22844,-6.852029 z m -1.23307,447.899869 c 53.0333,0 93.84865,40.81535 93.84865,93.84865 0,53.0333 -40.81535,93.84864 -93.84865,93.84864 -53.03329,0 -93.84865,-40.81534 -93.84865,-93.84864 0,-53.0333 40.81536,-93.84865 93.84865,-93.84865 z"
     id="path3825"
     inkscape:connector-curvature="0"
     sodipodi:nodetypes="cscccssscccssscccssscccssscccscsssss" />
  <path
     d="M 533.19404,51.267211 421.45919,384.36859 70.085879,380.99464 352.31502,590.13602 240.4487,923.28114 526.75288,719.48556 808.89437,928.7584 703.60069,593.64142 989.90488,389.84578 638.53156,386.47183 z m -3.19867,344.233879 c 76.96604,0 139.38092,62.41489 139.38092,139.38094 0,76.96604 -62.41488,139.38092 -139.38092,139.38092 -76.96605,0 -139.38092,-62.41488 -139.38092,-139.38092 0,-76.96605 62.41487,-139.38094 139.38092,-139.38094 z"
     id="polygon7"
     inkscape:connector-curvature="0"
     sodipodi:nodetypes="cccccccccccsssss" />
</svg>

<svg width="1060" height="1060" viewBox="0 0 1060 1060" fill="none" xmlns="http://www.w3.org/2000/svg">
<g clip-path="url(#clip0)">
<path opacity="0.426087" d="M531.229 -6.85194C519.468 -6.45574 507.857 -2.38761 498.421 4.64297C488.985 11.6736 481.766 21.6354 478.022 32.7912L379.746 325.768L70.6159 322.809C58.4297 322.693 46.2371 326.527 36.3102 333.597C26.3833 340.666 18.7726 350.934 14.8964 362.488C11.0202 374.042 10.8983 386.822 14.5533 398.448C18.2083 410.074 25.6216 420.486 35.4118 427.743L283.69 611.717L185.291 904.755C181.42 916.307 181.301 929.084 184.956 940.706C188.612 952.328 196.024 962.736 205.811 969.992C215.598 977.248 227.711 981.314 239.894 981.433C252.077 981.553 264.268 977.725 274.196 970.663L526.05 791.375L774.266 975.472C784.057 982.716 796.168 986.771 808.346 986.882C820.525 986.993 832.708 983.16 842.629 976.096C852.55 969.032 860.158 958.773 864.037 947.228C867.916 935.683 868.046 922.912 864.404 911.291L771.8 616.526L1023.65 437.238C1033.59 430.173 1041.21 419.906 1045.09 408.35C1048.98 396.793 1049.11 384.008 1045.45 372.377C1041.8 360.746 1034.38 350.328 1024.59 343.068C1014.8 335.807 1002.68 331.74 990.485 331.625L681.293 328.666L588.69 33.8393C584.907 21.8172 577.097 11.1004 566.812 3.81676C556.526 -3.46694 543.825 -7.27519 531.229 -6.85194ZM529.995 441.048C583.029 441.048 623.844 481.863 623.844 534.897C623.844 587.93 583.029 628.745 529.995 628.745C476.962 628.745 436.147 587.93 436.147 534.897C436.147 481.863 476.962 441.048 529.995 441.048V441.048Z" fill="#ACD8F3"/>
<path d="M533.194 51.2676L421.459 384.369L70.0859 380.995L352.315 590.136L240.449 923.281L526.753 719.486L808.894 928.759L703.601 593.642L989.905 389.846L638.532 386.472L533.194 51.2676ZM529.995 395.501C606.961 395.501 669.376 457.916 669.376 534.882C669.376 611.848 606.961 674.263 529.995 674.263C453.029 674.263 390.615 611.848 390.615 534.882C390.615 457.916 453.029 395.501 529.995 395.501V395.501Z" fill="black"/>
</g>
<defs>
<clipPath id="clip0">
<path d="M0 0H1060V1060H0V0Z" fill="white"/>
</clipPath>
</defs>
</svg>
